X: 1114
T:Sailor's Jacket (A52)
N: page A52
N: heptatonic
S:Trad, arr. Paddy O'Brien
R:reel
E:9
I:speed 350
M:C|
K:Dmix
"D"dfec ~A2AB|"Am"cdef gfge|"D"dfec~A2AB|"Am"cBcG ED D2:|
c|"D"~d2fd adfd|"Am"~c2 ec gcec|"D"~d2 fd adfd|"Am"eaag edd^c|
"D"defg afge|"Am"cdef "G"~g2fg|"Am"afge "D"~f2ed|"Am"eaag "D"ed d2||
